X:2863
T:Irish Rover
O:england
S:Leo Rowsome
R:march
E:7
I:speed 270
M:C
K:D
{c}AF|{A}D2 FG {d}A2de|f2 ec d2cB|{c}A2BG {c}F2 GF|{A}E6 {c}AF|{A}D2 FG {d}A2de|f2 ec d2cB|{c}A2BG {c}F2 GE|{A}D2 {G}D2 {A}D2||
{c}A2|d3 ef2d2|e3c {d}A4|d3e f2d2|e3c {d}AG{c}FE|{A}D2 FG {d}A2de|f2 {c}AF {A}G2FE|{A}D2 FA d2f2|e4 d2||


